X:1
T:Mons, 10.7.10.7 D
T:Mons, 10.7.10.7 D
T:Horace Neely Lincoln, 1896
T:Public Domain Courtesy of the Cyber Hymnal™
C:Horace Neely Lincoln, 1896
Z:Public Domain
Z:Courtesy of the Cyber Hymnal™
%%score ( 1 2 ) ( 3 4 )
L:1/8
Q:1/4=102
M:4/4
K:Ab
V:1 treble 
V:2 treble 
V:3 bass 
V:4 bass 
V:1
 [Ec]>[DB] | [CA]2 [A,C]2 [CE]2 [Ed]>[Ec] | [DB]2 [DF]2 [FB]2 [FB]>[FA] | [EG]2 [Ee]2 E2 [Ed]2 | %4
 [Ec]6 [Ec]>[DB] | [CA]2 [A,C]2 [CE]2 [Ed]>[Ec] | [DB]2 [DF]2 [FB]2 [FB]>[FA] | %7
 [EG]2 [Ee]2 [Ed]2 [EG]2 | [EA]6 [EG]>[FA] | [GB]2 [Ac]2 [GB]2 A>[GB] | %10
 [Ac]2 [Bd]2 [Ac]2 [Ec]>[Ed] | [Ae]2 [Af]2 [Ge]2 [F=d]2 | [Ge]6 [Ec]>[DB] | %13
 [CA]2 [A,C]2 [CE]2 [Ed]>[Ec] | [DB]2 [DF]2 [FB]2 [FB]>[FA] | [EG]2 [Ee]2 [Ed]2 [EG]2 | [EA]6 |] %17
V:2
 x2 | x8 | x8 | x4 E2 x2 | x8 | x8 | x8 | x8 | x8 | x6 A3/2 x/ | x8 | x8 | x8 | x8 | x8 | x8 | %16
 x6 |] %17
V:3
 A,>A, | A,2 [A,,E,]2 [A,,A,]2 [B,,G,]>[C,A,] | [D,F,]2 [D,B,]2 [D,D]2 [D,D]>[D,D] | %3
 [E,D]2 [E,C]2 [E,G,]2 [E,B,]2 | A,6 A,>A, | A,2 [A,,E,]2 [A,,A,]2 [B,,G,]>[B,,A,] | %6
 [D,F,]2 [D,B,]2 [D,D]2 [D,D]>[D,D] | [E,D]2 [E,C]2 [E,B,]2 [E,D]2 | [A,,C]6 [E,B,]>[E,E] | %9
 [E,E]2 [E,E]2 E2 [C,E]>[E,E] | [A,E]2 [A,E]2 [A,E]2 A,>[A,B,] | [A,C]2 [F,C]2 B,2 B,2 | %12
 [E,B,]6 A,>A, | A,2 [A,,E,]2 [A,,A,]2 [B,,G,]>[C,A,] | [D,F,]2 [D,B,]2 [D,D]2 [D,D]>[D,D] | %15
 [E,D]2 [E,C]2 [E,B,]2 [E,D]2 | [A,,C]6 |] %17
V:4
 A,>A, | A,2 x6 | x8 | x8 | A,6 A,>A, | A,2 x6 | x8 | x8 | x8 | x4 (E,D,) x2 | x6 A,3/2 x/ | %11
 x4 B,2 B,2 | x6 A,>A, | A,2 x6 | x8 | x8 | x6 |] %17

